dist/svgs/unicons/line/comment-alt-chart-lines.svg

<svg xmlns="http://www.w3.org/2000/svg" viewBox="0 0 24 24"><path d="M12 8a1 1 0 00-1 1v4a1 1 0 002 0V9a1 1 0 00-1-1zm-4 3a1 1 0 00-1 1v1a1 1 0 002 0v-1a1 1 0 00-1-1zm11-9H5a3 3 0 00-3 3v10a3 3 0 003 3h11.59l3.7 3.71A1 1 0 0021 22a.84.84 0 00.38-.08A1 1 0 0022 21V5a3 3 0 00-3-3zm1 16.59l-2.29-2.3A1 1 0 0017 16H5a1 1 0 01-1-1V5a1 1 0 011-1h14a1 1 0 011 1zM16 6a1 1 0 00-1 1v6a1 1 0 002 0V7a1 1 0 00-1-1z"/></svg>

<svg xmlns="http://www.w3.org/2000/svg" viewBox="0 0 24 24"><path d="M12,8a1,1,0,0,0-1,1v4a1,1,0,0,0,2,0V9A1,1,0,0,0,12,8ZM8,11a1,1,0,0,0-1,1v1a1,1,0,0,0,2,0V12A1,1,0,0,0,8,11ZM19,2H5A3,3,0,0,0,2,5V15a3,3,0,0,0,3,3H16.59l3.7,3.71A1,1,0,0,0,21,22a.84.84,0,0,0,.38-.08A1,1,0,0,0,22,21V5A3,3,0,0,0,19,2Zm1,16.59-2.29-2.3A1,1,0,0,0,17,16H5a1,1,0,0,1-1-1V5A1,1,0,0,1,5,4H19a1,1,0,0,1,1,1ZM16,6a1,1,0,0,0-1,1v6a1,1,0,0,0,2,0V7A1,1,0,0,0,16,6Z"/></svg>
